rospo-icon-theme-classic-common/24x24/places/folder-brown-java.svg

<svg height="24" width="24" xmlns="http://www.w3.org/2000/svg"><rect height="12" opacity=".2" rx="1" width="20" x="2" y="9.5"/><path d="m2 17c0 .554.446 1 1 1h18c .554 0 1-.446 1-1v-11c0-.554-.446-1-1-1h-10v-1c0-.554-.446-1-1-1h-7c-.554 0-1 .446-1 1" fill="#957552"/><rect height="12" opacity=".2" rx="1" width="20" x="2" y="8.5"/><rect fill="#e4e4e4" height="8" rx="1" width="16" x="4" y="7"/><rect fill="#ae8e6c" height="12" rx="1" width="20" x="2" y="9"/><path d="m3 3c-.554 0-1 .446-1 1v .5c0-.554.446-1 1-1h7c .554 0 1 .446 1 1v-.5c0-.554-.446-1-1-1zm8 2v .5h10c .554 0 1 .446 1 1v-.5c0-.554-.446-1-1-1z" fill="#fff" opacity=".1"/><path d="m11.586 11s .413.233.122.844c-.441.921.406 1.132.406 1.132s-.269-.217.09-.977c.396-.842-.618-.999-.618-.999zm1.6.92s-.821.315-.292 1.176c.35.57-.038.853-.038.853s.992-.281.514-1.069c-.431-.712-.184-.96-.184-.96zm-2.365.023s-.718.548-.006 1.221c.47.448.162.836.162.836s.891-.566.247-1.186c-.582-.558-.403-.87-.403-.87zm.156 2.057h-1.977l1 4h4l .138-.549c.116.029.237.049.362.049.828 0 1.5-.672 1.5-1.5 0-.703-.485-1.289-1.138-1.451l.138-.549h-4.024zm3.765 1.031c.006.001.011.002.017.003.267.071.367.562.224 1.096-.14.52-.46.891-.725.839z" fill="#3d3226"/></svg>

<svg xmlns="http://www.w3.org/2000/svg" width="24" height="24" version="1">
 <rect style="opacity:0.2" width="20" height="12" x="2" y="9.5" rx="1" ry="1"/>
 <path style="fill:#957552" d="M 2,17 C 2,17.554 2.446,18 3,18 H 21 C 21.554,18 22,17.554 22,17 V 6 C 22,5.446 21.554,5 21,5 H 11 V 4 C 11,3.446 10.554,3 10,3 H 3 C 2.446,3 2,3.446 2,4"/>
 <rect style="opacity:0.2" width="20" height="12" x="2" y="8.5" rx="1" ry="1"/>
 <rect style="fill:#dcdcdc" width="16" height="8" x="4" y="7" rx="1" ry="1"/>
 <rect style="fill:#ae8e6c" width="20" height="12" x="2" y="9" rx="1" ry="1"/>
 <path style="opacity:0.1;fill:#ffffff" d="M 3,3 C 2.446,3 2,3.446 2,4 V 4.5 C 2,3.946 2.446,3.5 3,3.5 H 10 C 10.554,3.5 11,3.946 11,4.5 V 4 C 11,3.446 10.554,3 10,3 Z M 11,5 V 5.5 H 21 C 21.554,5.5 22,5.946 22,6.5 V 6 C 22,5.446 21.554,5 21,5 Z"/>
 <path style="fill:#3d3226" d="M 11.586,11 C 11.586,11 11.999,11.233 11.708,11.844 11.267,12.765 12.114,12.976 12.114,12.976 12.114,12.976 11.845,12.759 12.204,11.999 12.6,11.157 11.586,11 11.586,11 Z M 13.186,11.92 C 13.186,11.92 12.365,12.235 12.894,13.096 13.244,13.666 12.856,13.949 12.856,13.949 12.856,13.949 13.848,13.668 13.37,12.88 12.939,12.168 13.186,11.92 13.186,11.92 Z M 10.821,11.943 C 10.821,11.943 10.103,12.491 10.815,13.164 11.285,13.612 10.977,14 10.977,14 10.977,14 11.868,13.434 11.224,12.814 10.642,12.256 10.821,11.944 10.821,11.944 Z M 10.977,14 H 9 L 10,18 H 14 L 14.138,17.451 C 14.254,17.48 14.375,17.5 14.5,17.5 15.328,17.5 16,16.828 16,16 16,15.297 15.515,14.711 14.862,14.549 L 15,14 H 10.976 Z M 14.742,15.031 C 14.748,15.032 14.753,15.033 14.759,15.034 15.026,15.105 15.126,15.596 14.983,16.13 14.843,16.65 14.523,17.021 14.258,16.969 Z"/>
</svg>
